X:41
T: Dayu luolai xiyu ling
N: C1539
O: China, Fujian, Changding, Hetian
S: II, 616]
R: Shange. Nann qing]
M: 2/4
L: 1/8
K: D
eBdB | BeeB | A4
AdBz | Bede | dBA2
AedB | Beee | dB3 | A4
AAdBz2 | Bedd | BA3 | AAA2

